docs/api/thirdparty/assets/diagrams/linking/3-authentication-third-party-fido.svg

<?xml version="1.0" encoding="UTF-8" standalone="no"?>
<svg xmlns="http://www.w3.org/2000/svg" xmlns:xlink="http://www.w3.org/1999/xlink" contentScriptType="application/ecmascript" contentStyleType="text/css" height="297px" preserveAspectRatio="none" style="width:1019px;height:297px" version="1.1" viewBox="0 0 1019 297" width="1019px" zoomAndPan="magnify">
  <defs/>
  <g>
    <text fill="#000000" font-family="Verdana" font-size="18" lengthAdjust="spacingAndGlyphs" textLength="527" x="245" y="28.708">PISP Linking: Authentication (Third-party FIDO registration)</text>
    <rect fill="#DDDDDD" height="243.0781" style="stroke:#383838;stroke-width:1.0" width="97" x="457" y="40.9531"/>
    <text fill="#000000" font-family="Verdana" font-size="13" font-weight="bold" lengthAdjust="spacingAndGlyphs" textLength="67" x="472" y="53.02">Mojaloop</text>
    <line style="stroke:#000000;stroke-width:1.0" x1="418" x2="418" y1="98.3672" y2="108.3672"/>
    <line style="stroke:#000000;stroke-width:1.0;stroke-dasharray:1.0,4.0" x1="418" x2="418" y1="108.3672" y2="136.3672"/>
    <line style="stroke:#000000;stroke-width:1.0" x1="418" x2="418" y1="136.3672" y2="186.6328"/>
    <line style="stroke:#000000;stroke-width:1.0;stroke-dasharray:1.0,4.0" x1="418" x2="418" y1="186.6328" y2="214.6328"/>
    <line style="stroke:#000000;stroke-width:1.0" x1="418" x2="418" y1="214.6328" y2="290.0313"/>
    <line style="stroke:#000000;stroke-width:1.0" x1="505" x2="505" y1="98.3672" y2="108.3672"/>
    <line style="stroke:#000000;stroke-width:1.0;stroke-dasharray:1.0,4.0" x1="505" x2="505" y1="108.3672" y2="136.3672"/>
    <line style="stroke:#000000;stroke-width:1.0" x1="505" x2="505" y1="136.3672" y2="186.6328"/>
    <line style="stroke:#000000;stroke-width:1.0;stroke-dasharray:1.0,4.0" x1="505" x2="505" y1="186.6328" y2="214.6328"/>
    <line style="stroke:#000000;stroke-width:1.0" x1="505" x2="505" y1="214.6328" y2="290.0313"/>
    <line style="stroke:#000000;stroke-width:1.0" x1="597" x2="597" y1="98.3672" y2="108.3672"/>
    <line style="stroke:#000000;stroke-width:1.0;stroke-dasharray:1.0,4.0" x1="597" x2="597" y1="108.3672" y2="136.3672"/>
    <line style="stroke:#000000;stroke-width:1.0" x1="597" x2="597" y1="136.3672" y2="186.6328"/>
    <line style="stroke:#000000;stroke-width:1.0;stroke-dasharray:1.0,4.0" x1="597" x2="597" y1="186.6328" y2="214.6328"/>
    <line style="stroke:#000000;stroke-width:1.0" x1="597" x2="597" y1="214.6328" y2="290.0313"/>
    <rect fill="#F4F4F4" height="37.2813" style="stroke:#383838;stroke-width:1.5" width="65" x="386" y="60.0859"/>
    <text fill="#000000" font-family="Verdana" font-size="20" font-weight="bold" lengthAdjust="spacingAndGlyphs" textLength="51" x="393" y="85.6504">PISP</text>
    <rect fill="#F4F4F4" height="37.2813" style="stroke:#383838;stroke-width:1.5" width="89" x="461" y="60.0859"/>
    <text fill="#000000" font-family="Verdana" font-size="20" font-weight="bold" lengthAdjust="spacingAndGlyphs" textLength="75" x="468" y="85.6504">Switch</text>
    <rect fill="#F4F4F4" height="37.2813" style="stroke:#383838;stroke-width:1.5" width="74" x="560" y="60.0859"/>
    <text fill="#000000" font-family="Verdana" font-size="20" font-weight="bold" lengthAdjust="spacingAndGlyphs" textLength="60" x="567" y="85.6504">DFSP</text>
    <path d="M29,141.3672 L29,181.3672 L986,181.3672 L986,151.3672 L976,141.3672 L29,141.3672 " fill="#ECECEC" style="stroke:#383838;stroke-width:1.0"/>
    <path d="M976,141.3672 L976,151.3672 L986,151.3672 L976,141.3672 " fill="#ECECEC" style="stroke:#383838;stroke-width:1.0"/>
    <text fill="#000000" font-family="Verdana" font-size="13" lengthAdjust="spacingAndGlyphs" textLength="485" x="35" y="158.4341">Here the user goes through the web authentication process with their DFSP.</text>
    <text fill="#000000" font-family="Verdana" font-size="13" lengthAdjust="spacingAndGlyphs" textLength="936" x="35" y="173.5669">The end result is a redirect back to the PISP with a special URL parameter indicating to the PISP that it should wait to be notified about a credential.</text>
    <path d="M5,219.6328 L5,274.6328 L1012,274.6328 L1012,229.6328 L1002,219.6328 L5,219.6328 " fill="#ECECEC" style="stroke:#383838;stroke-width:1.0"/>
    <path d="M1002,219.6328 L1002,229.6328 L1012,229.6328 L1002,219.6328 " fill="#ECECEC" style="stroke:#383838;stroke-width:1.0"/>
    <text fill="#000000" font-family="Verdana" font-size="13" lengthAdjust="spacingAndGlyphs" textLength="986" x="11" y="236.6997">At this point, the DFSP believes that the User is their customer and that User trusts the PISP. This means that the DFSP can continue by granting consent.</text>
    <text fill="#000000" font-family="Verdana" font-size="13" lengthAdjust="spacingAndGlyphs" textLength="0" x="15" y="251.8325"/>
    <text fill="#000000" font-family="Verdana" font-size="13" lengthAdjust="spacingAndGlyphs" textLength="820" x="11" y="266.9653">Note that the DFSP never &quot;responds&quot; to the Consent Request itself. Instead, it will create a Consent resource in the Grant phase.</text>
  </g>
</svg>

<svg xmlns="http://www.w3.org/2000/svg" height="297" preserveAspectRatio="none" style="width:1019px;height:297px" width="1019">
  <text font-family="Verdana" font-size="18" lengthAdjust="spacingAndGlyphs" textLength="527" x="245" y="28.708">
    PISP Linking: Authentication (Third-party FIDO registration)
  </text>
  <path fill="#DDD" stroke="#383838" d="M457 40.953h97v243.078h-97z"/>
  <text font-family="Verdana" font-size="13" font-weight="bold" lengthAdjust="spacingAndGlyphs" textLength="67" x="472" y="53.02">
    Mojaloop
  </text>
  <path stroke="#000" d="M418 98.367v10"/>
  <path stroke="#000" stroke-dasharray="1,4" d="M418 108.367v28"/>
  <path stroke="#000" d="M418 136.367v50.266"/>
  <path stroke="#000" stroke-dasharray="1,4" d="M418 186.633v28"/>
  <path stroke="#000" d="M418 214.633v75.398M505 98.367v10"/>
  <path stroke="#000" stroke-dasharray="1,4" d="M505 108.367v28"/>
  <path stroke="#000" d="M505 136.367v50.266"/>
  <path stroke="#000" stroke-dasharray="1,4" d="M505 186.633v28"/>
  <path stroke="#000" d="M505 214.633v75.398M597 98.367v10"/>
  <path stroke="#000" stroke-dasharray="1,4" d="M597 108.367v28"/>
  <path stroke="#000" d="M597 136.367v50.266"/>
  <path stroke="#000" stroke-dasharray="1,4" d="M597 186.633v28"/>
  <path stroke="#000" d="M597 214.633v75.398"/>
  <path fill="#F4F4F4" stroke="#383838" stroke-width="1.5" d="M386 60.086h65v37.281h-65z"/>
  <text font-family="Verdana" font-size="20" font-weight="bold" lengthAdjust="spacingAndGlyphs" textLength="51" x="393" y="85.65">
    PISP
  </text>
  <path fill="#F4F4F4" stroke="#383838" stroke-width="1.5" d="M461 60.086h89v37.281h-89z"/>
  <text font-family="Verdana" font-size="20" font-weight="bold" lengthAdjust="spacingAndGlyphs" textLength="75" x="468" y="85.65">
    Switch
  </text>
  <path fill="#F4F4F4" stroke="#383838" stroke-width="1.5" d="M560 60.086h74v37.281h-74z"/>
  <text font-family="Verdana" font-size="20" font-weight="bold" lengthAdjust="spacingAndGlyphs" textLength="60" x="567" y="85.65">
    DFSP
  </text>
  <path d="M29 141.367v40h957v-30l-10-10H29" fill="#ECECEC" stroke="#383838"/>
  <path d="M976 141.367v10h10l-10-10" fill="#ECECEC" stroke="#383838"/>
  <text font-family="Verdana" font-size="13" lengthAdjust="spacingAndGlyphs" textLength="485" x="35" y="158.434">
    Here the user goes through the web authentication process with their DFSP.
  </text>
  <text font-family="Verdana" font-size="13" lengthAdjust="spacingAndGlyphs" textLength="936" x="35" y="173.567">
    The end result is a redirect back to the PISP with a special URL parameter indicating to the PISP that it should wait to be notified about a credential.
  </text>
  <path d="M5 219.633v55h1007v-45l-10-10H5" fill="#ECECEC" stroke="#383838"/>
  <path d="M1002 219.633v10h10l-10-10" fill="#ECECEC" stroke="#383838"/>
  <text font-family="Verdana" font-size="13" lengthAdjust="spacingAndGlyphs" textLength="986" x="11" y="236.7">
    At this point, the DFSP believes that the User is their customer and that User trusts the PISP. This means that the DFSP can continue by granting consent.
  </text>
  <text font-family="Verdana" font-size="13" lengthAdjust="spacingAndGlyphs" textLength="820" x="11" y="266.965">
    Note that the DFSP never &quot;responds&quot; to the Consent Request itself. Instead, it will create a Consent resource in the Grant phase.
  </text>
</svg>
